images/cache/no-np.svg

<?xml version="1.0" encoding="UTF-8"?>
<svg width="1920px" height="1080px" viewBox="0 0 1920 1080" version="1.1" xmlns="http://www.w3.org/2000/svg" xmlns:xlink="http://www.w3.org/1999/xlink">
    <!-- Generator: Sketch 51 (57462) - http://www.bohemiancoding.com/sketch -->
    <title>no-np</title>
    <desc>Created with Sketch.</desc>
    <defs>
        <radialGradient cx="68.7%" cy="-37.4%" fx="68.7%" fy="-37.4%" r="133.793332%" gradientTransform="translate(0.687000,-0.374000),scale(0.562500,1.000000),rotate(131.633539),translate(-0.687000,0.374000)" id="radialGradient-1">
            <stop stop-color="#3F4245" offset="0%"></stop>
            <stop stop-color="#18191B" offset="100%"></stop>
        </radialGradient>
    </defs>
    <g id="Page-1" stroke="none" stroke-width="1" fill="none" fill-rule="evenodd">
        <g id="no-np" fill-rule="nonzero">
            <polygon id="Shape" fill="url(#radialGradient-1)" style="mix-blend-mode: overlay;" points="0 0 1920 0 1920 1080 0 1080"></polygon>
            <path d="M960,365 C863.35,365 785,443.35 785,540 C785,636.65 863.35,715 960,715 C1056.65,715 1135,636.65 1135,540 C1135,443.35 1056.65,365 960,365 Z M977.5,636.25 L942.5,636.25 L942.5,603 L977.5,603 L977.5,636.25 Z M1023.14,520.632 C1018.54,527.912 1008.692,537.832 993.596,550.392 C987.803408,554.622016 982.869209,559.916293 979.057,565.992 C976.710457,572.818187 975.794774,580.05447 976.367,587.25 L942.887,587.25 L942.887,578.435 C942.535708,569.178163 944.378881,559.969492 948.266,551.561 C953.780268,542.310766 961.064966,534.239046 969.703,527.808 C976.652166,522.5949 983.169317,516.829522 989.191,510.568 C992.361247,506.500928 994.076945,501.488682 994.064,496.332 C994.050514,489.187741 990.848962,482.42235 985.333,477.882 C978.808343,472.411371 970.449268,469.623345 961.947,470.082 C953.434576,469.831548 945.121938,472.687618 938.561,478.117 C931.671764,484.658143 927.147716,493.300366 925.698,502.689 L891.75,502.689 C892.551237,485.890468 899.729829,470.030115 911.822,458.342 C924.113,447.448 940.342,442 960.505,442 C981.735,442 998.625,447.551 1011.175,458.654 C1022.93268,468.111414 1029.83932,482.335596 1030,497.424 C1029.99974,505.659745 1027.61734,513.719623 1023.14,520.632 Z" id="Shape" fill-opacity="0.5" fill="#FFFFFF" style="mix-blend-mode: overlay;"></path>
        </g>
    </g>
</svg>

<?xml version="1.0" encoding="UTF-8"?>
<svg xmlns="http://www.w3.org/2000/svg" xmlns:xlink="http://www.w3.org/1999/xlink" width="1920" height="1080" viewBox="0 0 1920 1080">
  <defs>
    <radialGradient id="a" cy="0%" r="133.795%" fx="50%" fy="0%" gradientTransform="matrix(-.3737 .7474 -.42042 -.66436 .687 -.374)">
      <stop offset="0%" stop-color="#3F4245"/>
      <stop offset="100%" stop-color="#18191B"/>
    </radialGradient>
  </defs>
  <g fill="none" fill-rule="nonzero">
    <path fill="url(#a)" d="M0 0h1920v1080H0z" style="mix-blend-mode:overlay"/>
    <path fill="#FFF" fill-opacity=".5" d="M960 365c-96.65 0-175 78.35-175 175s78.35 175 175 175 175-78.35 175-175-78.35-175-175-175zm17.5 271.25h-35V603h35v33.25zm45.64-115.618c-4.6 7.28-14.448 17.2-29.544 29.76a56.501 56.501 0 0 0-14.539 15.6 52.572 52.572 0 0 0-2.69 21.258h-33.48v-8.815a58.736 58.736 0 0 1 5.379-26.874 81.888 81.888 0 0 1 21.437-23.753 161.477 161.477 0 0 0 19.488-17.24 23.062 23.062 0 0 0 4.873-14.236 23.955 23.955 0 0 0-8.731-18.45 33.583 33.583 0 0 0-23.386-7.8 35.064 35.064 0 0 0-23.386 8.035 42.914 42.914 0 0 0-12.863 24.572H891.75a66.054 66.054 0 0 1 20.072-44.347C924.113 447.448 940.342 442 960.505 442c21.23 0 38.12 5.551 50.67 16.654a50.445 50.445 0 0 1 18.825 38.77 42.692 42.692 0 0 1-6.86 23.208z" style="mix-blend-mode:overlay"/>
  </g>
</svg>
